src/assets/icons/angle-double-up.svg

<svg width="14" height="14" viewBox="0 0 14 14" fill="none" xmlns="http://www.w3.org/2000/svg">
<g id="angle-double-up">
<path id="Vector" fill-rule="evenodd" clip-rule="evenodd" d="M7.53033 1.96967C7.23744 1.67678 6.76256 1.67678 6.46967 1.96967L2.96967 5.46967C2.67678 5.76256 2.67678 6.23744 2.96967 6.53033C3.26256 6.82322 3.73744 6.82322 4.03033 6.53033L7 3.56066L9.96967 6.53033C10.2626 6.82322 10.7374 6.82322 11.0303 6.53033C11.3232 6.23744 11.3232 5.76256 11.0303 5.46967L7.53033 1.96967ZM11.0303 10.9697L7.53033 7.46967C7.23744 7.17678 6.76256 7.17678 6.46967 7.46967L2.96967 10.9697C2.67678 11.2626 2.67678 11.7374 2.96967 12.0303C3.26256 12.3232 3.73744 12.3232 4.03033 12.0303L7 9.06066L9.96967 12.0303C10.2626 12.3232 10.7374 12.3232 11.0303 12.0303C11.3232 11.7374 11.3232 11.2626 11.0303 10.9697Z" fill="black"/>
</g>
</svg>

<svg xmlns="http://www.w3.org/2000/svg" fill="none" viewBox="0 0 14 14"><path fill="#000" fill-rule="evenodd" d="M7.53 1.97a.75.75 0 0 0-1.06 0l-3.5 3.5a.75.75 0 0 0 1.06 1.06L7 3.56l2.97 2.97a.75.75 0 1 0 1.06-1.06zm3.5 9-3.5-3.5a.75.75 0 0 0-1.06 0l-3.5 3.5a.75.75 0 1 0 1.06 1.06L7 9.06l2.97 2.97a.75.75 0 1 0 1.06-1.06" clip-rule="evenodd"/></svg>
